X:632
M:C|
L:1/8
K:A Minor
E<A A>B c2ce|GABc dBGB|E<A A>B c2 ce|E<E E>^G A2A2:|
cde^f gage|GABc dBGB|cde^f gage|d<B g>B A2 AB|cde^f gage|

